X: 37837
T: Sook, The
R: jig
M: 6/8
K: Edorian
^A3|:B2 E E2 B|B2 c d2 c|BcB EGB|A2 F DFA|
B2 E E2 B|B2 c d2 B|A2 F DFD|E3 E2 B:|
|:B2 e e2 f|e2 d B2 A|B2 e e2(B|B2)e BeB|
d3 cdc|B2 A F2 A|DFA A2 B|F2 D E2 B:|

